img/calendar.svg

<svg width="16" height="16" viewBox="0 0 16 16" fill="none" xmlns="http://www.w3.org/2000/svg">
<path fill-rule="evenodd" clip-rule="evenodd" d="M3.99998 4.00016H5.33331V3.3335H10.6666V4.00016H12V3.3335H13.3333V5.3335H2.66665V3.3335H3.99998V4.00016ZM2.66665 6.66683V13.3335H13.3333V6.66683H2.66665ZM5.33331 2.00016H10.6666V1.3335H12V2.00016H13.3333C14.0697 2.00016 14.6666 2.59712 14.6666 3.3335V13.3335C14.6666 14.0699 14.0697 14.6668 13.3333 14.6668H2.66665C1.93027 14.6668 1.33331 14.0699 1.33331 13.3335V3.3335C1.33331 2.59712 1.93027 2.00016 2.66665 2.00016H3.99998V1.3335H5.33331V2.00016Z" fill="#207742"/>
</svg>

<svg width="16" height="16" viewBox="0 0 16 16" fill="none" xmlns="http://www.w3.org/2000/svg"><path fill-rule="evenodd" clip-rule="evenodd" d="M4 4h1.33v-.67h5.34V4H12v-.67h1.33v2H2.67v-2H4V4ZM2.67 6.67v6.66h10.66V6.67H2.67ZM5.33 2h5.34v-.67H12V2h1.33c.74 0 1.34.6 1.34 1.33v10c0 .74-.6 1.34-1.34 1.34H2.67c-.74 0-1.34-.6-1.34-1.34v-10c0-.73.6-1.33 1.34-1.33H4v-.67h1.33V2Z" fill="#207742"/></svg>
